svgs/light/atom-simple.svg

<svg xmlns="http://www.w3.org/2000/svg" viewBox="0 0 448 512"><!-- Font Awesome Pro 6.0.0-alpha2 by @fontawesome - https://fontawesome.com License - https://fontawesome.com/license (Commercial License) --><path d="M426.871 53.494C400.123 26.867 353.498 24.867 295.5 48.117C272.252 57.369 248.127 70.744 224.004 86.619C199.879 70.744 175.756 57.369 152.631 48.117C94.507 24.867 47.884 26.867 21.134 53.494C-17.239 91.744 -1.614 171.494 53.884 255.996C-1.614 340.498 -17.239 420.248 21.134 458.5C35.509 472.875 55.634 480 80.132 480C101.257 480 125.756 474.625 152.631 464C175.756 454.75 199.879 441.25 224.004 425.375C248.127 441.25 272.252 454.75 295.5 464C322.25 474.625 346.625 480 367.873 480C392.373 480 412.496 472.875 426.871 458.5C465.246 420.248 449.621 340.498 393.998 255.996C449.621 171.494 465.246 91.744 426.871 53.494ZM307.375 77.744C352.123 59.994 387.373 59.369 404.248 76.119C427.121 98.994 417.121 158.494 374.248 227.746C356.873 204.746 337.875 183.121 317.375 162.744C297 142.619 275.252 123.869 252.252 106.744C271.002 95.119 289.502 84.869 307.375 77.744ZM43.759 76.119C52.009 67.994 64.382 63.994 80.257 63.994C97.007 63.994 117.631 68.619 140.631 77.744C158.506 84.869 177.129 95.119 195.754 106.744C149.506 141.119 108.507 181.871 73.757 227.746C30.884 158.494 20.884 99.119 43.759 76.119ZM140.631 434.25C96.007 452.125 60.757 452.625 43.759 435.875C20.884 412.998 30.884 353.498 73.757 284.246C91.132 307.248 110.132 328.873 130.631 349.248C151.006 369.373 172.756 388.123 195.754 405.373C177.129 416.873 158.506 427.125 140.631 434.25ZM153.256 326.623C131.256 304.748 111.007 281.121 92.882 255.996C111.007 230.871 131.256 207.246 153.256 185.371C175.131 163.494 198.879 143.369 224.004 125.244C249.127 143.369 272.752 163.494 294.75 185.371C316.75 207.246 337 230.871 355.123 255.996C337 281.121 316.75 304.748 294.75 326.623C272.752 348.498 249.127 368.623 224.004 386.748C198.879 368.623 175.256 348.498 153.256 326.623ZM404.248 435.875C387.373 452.625 351.998 452.125 307.375 434.25C289.502 427.125 270.877 416.873 252.252 405.373C275.252 388.123 297 369.373 317.375 349.248C337.875 328.873 356.873 307.248 374.248 284.246C417.121 353.498 427.121 412.998 404.248 435.875ZM224 232C210.75 232 200 242.723 200 256.062C199.875 269.277 210.75 280 224 280C230.375 280 236.5 277.506 241 273.018S248 262.42 248 256.062C248 242.848 237.25 232 224 232Z"/></svg>

<svg xmlns="http://www.w3.org/2000/svg" viewBox="0 0 448 512"><!--! Font Awesome Pro 6.3.0 by @fontawesome - https://fontawesome.com License - https://fontawesome.com/license (Commercial License) Copyright 2023 Fonticons, Inc. --><path d="M426.9 53.49c-26.75-26.63-73.37-28.63-131.4-5.377c-23.25 9.252-47.37 22.63-71.5 38.5c-24.12-15.88-48.25-29.25-71.37-38.5C94.51 24.87 47.88 26.87 21.13 53.49c-38.37 38.25-22.75 118 32.75 202.5c-55.5 84.5-71.12 164.3-32.75 202.5C35.51 472.9 55.63 480 80.13 480c21.12 0 45.62-5.375 72.5-16c23.12-9.25 47.25-22.75 71.37-38.63C248.1 441.3 272.3 454.8 295.5 464c26.75 10.62 51.13 16 72.37 16c24.5 0 44.62-7.125 58.1-21.5c38.38-38.25 22.75-118-32.87-202.5C449.6 171.5 465.2 91.74 426.9 53.49zM307.4 77.74c44.75-17.75 79.1-18.38 96.87-1.625c22.87 22.88 12.87 82.38-30 151.6c-17.38-23-36.37-44.63-56.87-65c-20.38-20.12-42.12-38.88-65.12-56C271 95.12 289.5 84.87 307.4 77.74zM43.76 76.12c8.25-8.125 20.62-12.12 36.5-12.12c16.75 0 37.37 4.625 60.37 13.75c17.88 7.125 36.5 17.38 55.12 29c-46.25 34.38-87.25 75.13-121.1 121C30.88 158.5 20.88 99.12 43.76 76.12zM140.6 434.3c-44.62 17.88-79.87 18.38-96.87 1.625c-22.88-22.88-12.88-82.38 29.1-151.6c17.38 23 36.38 44.63 56.87 65c20.38 20.12 42.13 38.88 65.12 56.13C177.1 416.9 158.5 427.1 140.6 434.3zM153.3 326.6c-22-21.88-42.25-45.5-60.37-70.63c18.12-25.12 38.37-48.75 60.37-70.63c21.88-21.88 45.62-42 70.75-60.13c25.12 18.12 48.75 38.25 70.75 60.13c22 21.88 42.25 45.5 60.37 70.63c-18.12 25.12-38.37 48.75-60.37 70.63c-21.1 21.88-45.62 42-70.75 60.13C198.9 368.6 175.3 348.5 153.3 326.6zM404.2 435.9c-16.88 16.75-52.25 16.25-96.87-1.625c-17.87-7.125-36.5-17.38-55.12-28.88c23-17.25 44.75-36 65.12-56.13c20.5-20.38 39.5-42 56.87-65C417.1 353.5 427.1 412.1 404.2 435.9zM224 232c-13.25 0-24 10.72-24 24.06C199.9 269.3 210.8 280 224 280c6.375 0 12.5-2.494 17-6.982S248 262.4 248 256.1C248 242.8 237.3 232 224 232z"/></svg>
